app/dist/common/images/rohm.svg

<svg height="18" viewBox="0 0 18 18" width="18" xmlns="http://www.w3.org/2000/svg"><path d="m0 0h18v18h-18z" fill="#d90013"/><path d="m2 11v-3.9s.85-.1 1.37-.1c.87 0 1.18.1 1.4.34.16.18.24.48.24.91s-.04.76-.21.94c-.18.19-.45.26-.58.3h-.02l.98 1.51h-1.01l-.84-1.33c-.06-.1-.06-.16-.06-.28v-.39c.26 0 .61-.02.78-.19.12-.12.18-.36.18-.61 0-.3-.09-.4-.2-.49-.12-.1-.28-.14-.58-.14-.25 0-.42.03-.46.03-.12.03-.2.12-.2.23v3.17zm4-1.48c0 .26.02.46.07.6.1.28.38.34.7.34s.59-.07.7-.35c.04-.12.04-.3.04-.52v-1.13c0-.23 0-.4-.04-.54-.1-.29-.34-.35-.7-.35-.32 0-.6.07-.7.35-.05.14-.07.33-.07.59zm-.82.14v-1.32c0-.94.48-1.34 1.6-1.34 1.1 0 1.58.4 1.58 1.34v1.32c0 .94-.47 1.34-1.59 1.34-1.11 0-1.59-.4-1.59-1.34zm5.82-2.66v1.4c0 .15 0 .2-.1.2h-1.21c-.09 0-.14-.04-.14-.2v-1.4h-.86v4h.86v-1.35c0-.16.06-.25.14-.25h1.18c.09 0 .14.08.14.25v1.35h.86v-4zm3.12 0c.4 0 .93 0 1.28.14.58.24.6.79.6 1.18v2.68h-.87v-2.7c0-.17 0-.31-.03-.42-.03-.12-.08-.19-.2-.22-.07-.02-.2-.02-.3-.02-.09 0-.1.07-.1.12v3.24h-.87v-3.23c0-.07-.02-.13-.1-.13l-.42.01c-.08 0-.11.07-.11.13v3.22h-.85v-3.91l.16-.01a27.2 27.2 0 0 1 1.75-.08z" fill="#fff"/></svg>

<!-- by TradingView --><svg xmlns="http://www.w3.org/2000/svg" width="18" height="18" viewBox="0 0 18 18"><path fill="#D90013" d="M0 0h18v18H0z"/><path d="M2 11V7.1S2.85 7 3.37 7c.87 0 1.18.1 1.4.34.16.18.24.48.24.91 0 .43-.04.76-.21.94-.18.19-.45.26-.58.3H4.2L5.18 11H4.17l-.84-1.33c-.06-.1-.06-.16-.06-.28V9c.26 0 .61-.02.78-.19.12-.12.18-.36.18-.61 0-.3-.09-.4-.2-.49-.12-.1-.28-.14-.58-.14-.25 0-.42.03-.46.03-.12.03-.2.12-.2.23V11H2Zm4-1.48c0 .26.02.46.07.6.1.28.38.34.7.34.32 0 .59-.07.7-.35.04-.12.04-.3.04-.52V8.46c0-.23 0-.4-.04-.54-.1-.29-.34-.35-.7-.35-.32 0-.6.07-.7.35-.05.14-.07.33-.07.59v1.01Zm-.82.14V8.34c0-.94.48-1.34 1.6-1.34 1.1 0 1.58.4 1.58 1.34v1.32c0 .94-.47 1.34-1.59 1.34-1.11 0-1.59-.4-1.59-1.34ZM11 7v1.4c0 .15 0 .2-.1.2H9.69c-.09 0-.14-.04-.14-.2V7h-.86v4h.86V9.65c0-.16.06-.25.14-.25h1.18c.09 0 .14.08.14.25V11h.86V7H11Zm3.12 0c.4 0 .93 0 1.28.14.58.24.6.79.6 1.18V11h-.87V8.3c0-.17 0-.31-.03-.42-.03-.12-.08-.19-.2-.22-.07-.02-.2-.02-.3-.02-.09 0-.1.07-.1.12V11h-.87V7.77c0-.07-.02-.13-.1-.13l-.42.01c-.08 0-.11.07-.11.13V11h-.85V7.09l.16-.01A27.2 27.2 0 0 1 14.06 7h.06Z" fill="#fff"/></svg>
